resources/haticons/SVG/message1.svg

<!-- Generated by IcoMoon.io -->
<svg version="1.1" xmlns="http://www.w3.org/2000/svg" width="24" height="24" viewBox="0 0 24 24">
<title>message1</title>
<path d="M18 8.016v-2.016h-12v2.016h12zM18 11.016v-2.016h-12v2.016h12zM18 14.016v-2.016h-12v2.016h12zM20.016 2.016q0.797 0 1.383 0.586t0.586 1.383v12q0 0.797-0.586 1.406t-1.383 0.609h-14.016l-3.984 3.984v-18q0-0.797 0.586-1.383t1.383-0.586h16.031z"></path>
</svg>

<svg xmlns="http://www.w3.org/2000/svg" width="24" height="24"><path d="M18 8.016V6H6v2.016h12zm0 3V9H6v2.016h12zm0 3V12H6v2.016h12zm2.016-12q.797 0 1.383.586t.586 1.383v12q0 .797-.586 1.406T20.016 18H6l-3.984 3.984v-18q0-.797.586-1.383t1.383-.586h16.031z"/></svg>
